app/img/contact-linkedin.svg

<svg width="42" height="42" viewBox="0 0 42 42" fill="none" xmlns="http://www.w3.org/2000/svg">
<path d="M35.697 5.38525H6.23786C5.5294 5.38525 4.95703 5.95763 4.95703 6.66609V36.1252C4.95703 36.8337 5.5294 37.406 6.23786 37.406H35.697C36.4054 37.406 36.9778 36.8337 36.9778 36.1252V6.66609C36.9778 5.95763 36.4054 5.38525 35.697 5.38525ZM14.4552 32.671H9.70411V17.389H14.4552V32.671ZM12.0817 15.2997C11.537 15.2997 11.0046 15.1382 10.5517 14.8356C10.0989 14.533 9.74591 14.1029 9.53749 13.5997C9.32906 13.0965 9.27453 12.5428 9.38078 12.0087C9.48704 11.4745 9.74931 10.9838 10.1344 10.5987C10.5196 10.2136 11.0102 9.95128 11.5444 9.84503C12.0786 9.73877 12.6323 9.7933 13.1355 10.0017C13.6387 10.2102 14.0688 10.5631 14.3713 11.016C14.6739 11.4688 14.8354 12.0013 14.8354 12.5459C14.8314 14.0669 13.5986 15.2997 12.0817 15.2997ZM32.2427 32.671H27.4957V25.2381C27.4957 23.465 27.4636 21.1875 25.0261 21.1875C22.5565 21.1875 22.1762 23.1168 22.1762 25.1101V32.671H17.4331V17.389H21.9881V19.4784H22.0521C22.6845 18.2776 24.2335 17.0088 26.547 17.0088C31.3582 17.0088 32.2427 20.1748 32.2427 24.2895V32.671Z" fill="#2091F9"/>
</svg>

<svg width="42" height="42" fill="none" xmlns="http://www.w3.org/2000/svg"><path d="M35.697 5.385H6.237a1.28 1.28 0 00-1.28 1.281v29.46c0 .708.572 1.28 1.28 1.28h29.46a1.28 1.28 0 001.28-1.28V6.665a1.28 1.28 0 00-1.28-1.28zM14.455 32.671h-4.75V17.389h4.75v15.282zM12.082 15.3a2.754 2.754 0 110-5.508 2.754 2.754 0 010 5.508zm20.16 17.371h-4.746v-7.433c0-1.773-.032-4.05-2.47-4.05-2.47 0-2.85 1.929-2.85 3.922v7.561h-4.743V17.389h4.555v2.09h.064c.633-1.201 2.181-2.47 4.495-2.47 4.811 0 5.696 3.166 5.696 7.28v8.382z" fill="#2091F9"/></svg>
